!!!COM: Palestrina, Giovanni Perluigi da
!!!OPR: Missa Dum complerentur
!!!OMD: Credo
!!!OTL: Crucifixus
**kern	**kern	**kern	**kern
*Ibass	*Itenor	*Icalto	*Icalto
!Bassus	!Tenor	!Altus 2	!Altus 1
*clefF4	*clefGv2	*clefG2	*clefG2
*k[b-]	*k[b-]	*k[b-]	*k[b-]
*F:ion	*F:ion	*F:ion	*F:ion
*M4/2	*M4/2	*M4/2	*M4/2
=78	=78	=78	=78
0C	0c	0g	0e
=79	=79	=79	=79
1G	1B	1g	1d
1F	[1c	1a	1f
=80	=80	=80	=80
2C	1c]	1g	1e
2.c	.	.	.
.	1F	2.cc	2r
4B-	.	.	.
4A	.	.	[2f
4G	.	4b-	.
=81	=81	=81	=81
2F	2.c	2a	2f]
2C	.	2g	2e
.	4B-	.	.
2D	2A	2f	2d
2E	2G	2e	[2c
=82	=82	=82	=82
2F	2A	1d	2c]
2G	2G	.	2B
1C	2r	1e	1c
.	2G	.	.
=83	=83	=83	=83
2r	2.c	2r	2r
2C	.	2g	2e
.	4c	.	.
2.F	1c	2.a	2.f
4F	.	4a	4f
=84	=84	=84	=84
1F	2r	1a	1f
.	2F	.	.
2r	2.c	2r	2r
2C	.	2e	2g
.	4c	.	.
=85	=85	=85	=85
2.F	1.c	2.f	2.a
4F	.	4f	4a
1F	.	[1f	1a
.	2A	.	.
=86	=86	=86	=86
1D	2.d	1f]	1a
.	4c	.	.
1G	4B	1d	2.g
.	4A	.	.
.	2B	.	.
.	.	.	4f
=87	=87	=87	=87
[0C	2c	2.g	4e
.	.	.	4d
.	2G	.	2.e
.	.	4f	.
.	2.c	4e	.
.	.	4d	4f
.	.	2e	[2g
.	4B-	.	.
=88	=88	=88	=88
0C]	2A	1c	2g]
.	4G	.	1f
.	4F	.	.
.	1G	2r	.
.	.	2c	2e
=89	=89	=89	=89
1F	1A	2c	1f
.	.	2.f	.
2F	1r	.	2r
.	.	4e	.
[2B-	.	4d	2f
.	.	4c	.
=90	=90	=90	=90
4B-]	0r	1d	2f
4A	.	.	.
4G	.	.	1b-
4F	.	.	.
2G	.	2e	.
2F	.	2f	2a
=91	=91	=91	=91
2C	1r	2e	2g
2D	.	2.f	2f
1C	2r	.	1g
.	.	8e	.
.	.	8d	.
.	2c	2e	.
=92	=92	=92	=92
2.F	2c	1A	2r
.	1f	.	2c
4E	.	.	.
2D	.	2A	2d
2C	2e	2c	[2g
=93	=93	=93	=93
2G	2d	2B	2g]
2A	2c	2.c	2f#
1G	2d	.	2.g
.	.	8B	.
.	.	8A	.
.	2g	2B	.
.	.	.	4f
=94	=94	=94	=94
2r	2g	2c	4e
.	.	.	4d
2c	2f#	2A	2c
2c	2.g	1G	1d
2B	.	.	.
.	4f	.	.
=95	=95	=95	=95
4c	4e	0r	0r
4B-	4d	.	.
4A	4c	.	.
4G	4B-	.	.
4F	4A	.	.
4E	4G	.	.
4E	[2c	.	.
8D	.	.	.
8C	.	.	.
=96	=96	=96	=96
1D	2c]	2r	1r
.	2B	2f	.
1C	2c	2f	2r
.	2c	2e	2cc
=97	=97	=97	=97
0r	2A	4f	2cc
.	.	4e	.
.	2G	4g	2b
.	.	4f	.
.	[1A	4e	4cc
.	.	4d	4b-
.	.	4c	4a
.	.	4B-	4g
=98	=98	=98	=98
0r	1A]	4A	4f
.	.	4B-	4e
.	.	1c	4e
.	.	.	8d
.	.	.	8c
.	1G	.	1d
.	.	2B-	.
=99	=99	=99	=99
2r	2.g	1c	1e
2.c	.	.	.
.	4f	.	.
.	2e	2.g	1r
4c	.	.	.
2B	2d	.	.
.	.	4g	.
=100	=100	=100	=100
4c	4e	2g	0r
4B-	4d	.	.
4A	4c	2.a	.
4G	4B-	.	.
4F	4A	.	.
4E	4B	4g	.
4E	2c	4g	.
8D	.	8f	.
8C	.	8e	.
=101	=101	=101	=101
1D	2c	2.f	2r
.	2B	.	2f
.	.	4g	.
2C	[1c	2a	2f
2c	.	2g	2e
=102	=102	=102	=102
1A	1c]	2r	4f
.	.	.	4e
.	.	2cc	4e
.	.	.	8d
.	.	.	8c
2G	1r	2cc	1d
2G	.	2b	.
=103	=103	=103	=103
4A	2r	4cc	1c
4G	.	4b-	.
4F	2f	4a	.
4E	.	4g	.
2D	2f	4a	2r
.	.	4f	.
2C	2e	4g	2c
.	.	4a	.
=104	=104	=104	=104
0BB-	4f	4b-	0d
.	4e	4a	.
.	4d	4g	.
.	4c	4f	.
.	2B-	4g	.
.	.	4f	.
.	2A	[2f	.
=105	=105	=105	=105
1C	1G	2f]	1.c
.	.	2e	.
1F	1A	2f	.
.	.	2c	2f
=106	=106	=106	=106
0r	0r	2d	2f
.	.	2e	2g
.	.	2f	2a
.	.	2g	2b-
=107	=107	=107	=107
2r	0r	1.a	1.cc
2F	.	.	.
2F	.	.	.
2G	.	2g	2b-
=108	=108	=108	=108
2A	0r	1f	1a
2B-	.	.	.
1c	.	[1e	[1g
=109	=109	=109	=109
2c	2r	1e]	2g]
2A	2c	.	2cc
2G	2d	1r	2b-
2F	2f	.	2a
=110	=110	=110	=110
1.c	4e	0r	4g
.	4d	.	4f
.	4c	.	4e
.	4B-	.	4d
.	2A	.	2c
2B-	2G	.	2d
=111	=111	=111	=111
2A	2c	0r	2e
4G	2.d	.	2.f
4F	.	.	.
1A	.	.	.
.	4c	.	4e
.	[2c	.	4e
.	.	.	8d
.	.	.	8c
=112	=112	=112	=112
1G	2c]	1r	1d
.	2B	.	.
1C	2c	2r	1e
.	2c	2cc	.
=113	=113	=113	=113
2r	2d	2b-	0r
2F	2f	2a	.
2G	2e	2g	.
2B-	2d	2f	.
=114	=114	=114	=114
4A	4c	1a	0r
4G	4B-	.	.
4F	4A	.	.
4E	4G	.	.
2D	2F	2a	.
2E	2G	[2g	.
=115	=115	=115	=115
2F	4A	4g]	2r
.	4B-	4f	.
2A	4c	1f	2f
.	4A	.	.
1G	1B-	.	2g
.	.	2e	2b-
=116	=116	=116	=116
1F	1c	1f	4a
.	.	.	4g
.	.	.	4f
.	.	.	4e
1r	1f	2r	2d
.	.	2f	2d
=117	=117	=117	=117
1r	2e	2g	2c
.	2d	2b-	2B-
1F	1c	4a	1f
.	.	4g	.
.	.	4f	.
.	.	4e	.
=118	=118	=118	=118
2G	2B-	1d	0r
2B-	2d	.	.
4A	4c	2e	.
4G	4B-	.	.
4F	4A	[2f	.
4E	4G	.	.
=119	=119	=119	=119
1D	2.A	4f]	1r
.	.	4e	.
.	.	2.d	.
.	4B-	.	.
2E	2G	.	2r
.	.	4c	.
2F	2A	[2c	2c
=120	=120	=120	=120
1D	1F	2c]	2d
.	.	2B	2f
1C	1G	2c	4e
.	.	.	4d
.	.	2g	4c
.	.	.	4B-
=121	=121	=121	=121
1F	2r	2a	2A
.	2c	2cc	2A
2r	2d	2b-	2G
2F	2f	[2a	2c
=122	=122	=122	=122
2G	4e	4a]	1B-
.	4d	4g	.
2B-	2.d	1g	.
2A	.	.	1c
.	4c	.	.
2A	[2c	2f#	.
=123	=123	=123	=123
1G	2c]	2g	2d
.	2B	1g	2d
2r	1c	.	2e
[2c	.	2a	[2e
=124	=124	=124	=124
2c]	0r	2g	2e]
2d	.	1f	2f
1c	.	.	1g
.	.	2e	.
=125	=125	=125	=125
2A	1r	2c	2a
2B-	.	4d	2f
.	.	4c	.
2B-	2r	4d	2g
.	.	4e	.
2A	2c	[2f	2a
=126	=126	=126	=126
1G	2d	2f]	1b-
.	4B-	2e	.
.	4c	.	.
1F	4d	1f	[1a
.	4e	.	.
.	[2f	.	.
=127	=127	=127	=127
2r	2f]	1c	2a]
1c	4e	.	4g
.	4d	.	4f
.	2e	1r	2g
2d	2f	.	[2f
=128	=128	=128	=128
1.c	1g	2r	2f]
.	.	1g	4e
.	.	.	4d
.	1r	.	2e
2A	.	2a	2c
=129	=129	=129	=129
2B-	2r	1g	2d
1c	1g	.	2e
.	.	2e	1c
2F	2a	[2f	.
=130	=130	=130	=130
1.c	1g	2f]	0r
.	.	2e	.
.	2e	2c	.
2B-	2f	[2d	.
=131	=131	=131	=131
2.A	2f	4d]	1r
.	.	4c	.
.	2e	1c	.
4G	.	.	.
2F	1d	.	2r
2G	.	2B	[2g
=132	=132	=132	=132
2C	2e	2c	2g]
2F	2f	2cc	2a
1G	1d	2cc	1g
.	.	2b-	.
=133	=133	=133	=133
1A	1c	1a	2e
.	.	.	2f
2B-	2d	1g	2f
2c	[2c	.	2e
=134	=134	=134	=134
0G	2c]	[0g	0d
.	4B	.	.
.	4A	.	.
.	1B	.	.
=135	=135	=135	=135
0C	0c	0g]	0e
*-	*-	*-	*-
!!!CDT: 1525/^1526/-1594/2/2
!!!OCY: Italia
!!!AGN: Mass (Parody)
!!!AST: renaissance, vocal
!!!ASW: Motet 1569 (Palestrina)
!!!PWK: Masses, Book 8
!!!RNB: Cadence finals: C
!!!YOR: Le Opere Complete, v. 24, p. 117
!!!YOO: Rome, Italy: Fratelli Scalera
!!!END: 1992//
!!!EED: John Miller
!!!YEC: Copyright 2000, John Miller
!!!YEN: United States of America
!!!YEM: Rights to all derivative electronic formats reserved.
!!!YEM: Refer to licensing agreement for further details.
!!!YEM: This file must be accompanied by the licensing agreement.
!!!YEM: A copy of the licensing agreement may be found at http://www.music-cog.ohio-state.edu/HumdrumDatabases/Palestrina/license.txt
!!!EMD: converted to Humdrum by Bret Aarden
